X: 1
T: the Joy of It
C: Catriona MacDonald
R: mixed
Z: 2017 John Chambers <jc:trillian.mit.edu>
M: 3/4	% and 4/4
L: 1/8
K: D
"A"|:\
(dc) (cA) AF | (GF) (FD) DC | (dc) (cA) AF |[M:4/4] G/A/B/d/ (gf) (fe) ec |[M:3/4]
(dc) (cA) AF | (GF) (FD) DC | B,/A,/(G, B,)(D G)F |1 (ED) D(C D2) :|2 (ED) D(C D)(B,- |
B,-B,-\
"B"|: B,/(A,/G,) B,D GF |[M:3/4] C/B,/(A, C)D CA,| B,/A,/(G, B,)D GF | EF GA "d.C."FD :|
B,/A,/(G, B,)D GF | C/B,/(A, C)D CA,| B,/A,/(G, B,)D GF |[M:4/4] E(F G)(A B)(c d2) :|
